X:1
L:1/8
M:4/4
K:C
[M:6/8][K:A] GBE cde/ ad e e dffeece[Q:1/8=160]E | ABA Ace | a2 A A2 B | cde dcB | ABA GFE | 
 ABA Ace | a2 A A2 B | cde dcB | cAA A2 :| E | A3 cBA | cee e2 e | a3 f2 b | gee e2 e | fga ecA | 
 gbe' c'ae | fga c2 B | cAA A2 :|
